X:9
T:Dieu est amour - D116
C:D. Ombrie
M:4/4
L:1/4
K:D
D2DE|F3z|F2FB|A2-Az|F2ED|B,DD2||
[M:6/8]D/D/E/F3/|F/F/F/ED/|E3/B,B,/|D3/E/E/E/|F3||
